X:2
T:Old Copper Plate, The
S:Trad, arr. Paddy O'Brien
R:reel
E:9
I:speed 350
M:C|
K:ADor
B2|:~A2EA cA~A2|aged cAFA|~G2 DG BGBd|gedc BG~G2|\
~A2 EA cA~A2|aged cAG2|ABcd efge|1 aged cAGB:|2aged cA A2||\
agea ~a2bg|aged cAA2|agef ~g2 ab|gedc BG~G2|\
agea ~a2bg|aged cAGB|ABcd efge|aged cA A2:|**


